;FLAVOR:Marlin
;TIME:5012
;Filament used: 3.46716m
;Layer height: 0.2
;MINX:56.551
;MINY:15.067
;MINZ:0.2
;MAXX:163.449
;MAXY:63.547
;MAXZ:10
;Generated with Cura_SteamEngine 4.2.1
M140 S60
M105
M190 S60
M104 S210
M105
M109 S210
M82 ;absolute extrusion mode
M201 X500.00 Y500.00 Z100.00 E5000.00 ;Setup machine max acceleration
M203 X500.00 Y500.00 Z10.00 E50.00 ;Setup machine max feedrate
M204 P500.00 R1000.00 T500.00 ;Setup Print/Retract/Travel acceleration
M205 X8.00 Y8.00 Z0.40 E5.00 ;Setup Jerk
M220 S100 ;Reset Feedrate
M221 S100 ;Reset Flowrate

G28 ;Home

G92 E0 ;Reset Extruder
G1 Z2.0 F3000 ;Move Z Axis up
G1 X10.1 Y20 Z0.28 F5000.0 ;Move to start position
G1 X10.1 Y200.0 Z0.28 F1500.0 E15 ;Draw the first line
G1 X10.4 Y200.0 Z0.28 F5000.0 ;Move to side a little
G1 X10.4 Y20 Z0.28 F1500.0 E30 ;Draw the second line
G92 E0 ;Reset Extruder
G1 Z2.0 F3000 ;Move Z Axis up

M141 S28
G92 E0
G92 E0
G1 F2700 E-5
;LAYER_COUNT:50
;LAYER:0
M107
G0 F6000 X58.559 Y39.173 Z0.2
;TYPE:SKIRT
G1 F2700 E0
G1 F1200 X59.132 Y38.402 E0.03514
G1 X59.767 Y37.681 E0.0703
G1 X60.46 Y37.015 E0.10546
G1 X61.205 Y36.41 E0.14057
G1 X61.999 Y35.868 E0.17574
G1 X62.455 Y35.598 E0.19513
G1 X63.423 Y35.055 E0.23574
G1 X65.589 Y33.801 E0.32731
G1 X67.723 Y32.483 E0.41907
G1 X69.801 Y31.118 E0.51004
G1 X71.876 Y29.669 E0.60263
G1 X73.877 Y28.185 E0.69377
G1 X75.839 Y26.643 E0.78507
G1 X77.76 Y25.043 E0.87654
G1 X79.626 Y23.397 E0.96757
G1 X81.465 Y21.681 E1.0596
G1 X83.594 Y19.561 E1.16952
G1 X83.665 Y19.491 E1.17317
G1 X84.18 Y18.987 E1.19953
G1 X84.893 Y18.345 E1.23464
G1 X85.658 Y17.764 E1.26978
G1 X86.84 Y17.042 E1.32045
G1 X87.39 Y16.75 E1.34324
G1 X87.716 Y16.584 E1.35662
G1 X88.044 Y16.423 E1.36999
G1 X88.923 Y16.036 E1.40513
G1 X89.832 Y15.723 E1.4403
G1 X91.073 Y15.427 E1.48698
G1 X91.581 Y15.335 E1.50587
G1 X91.957 Y15.273 E1.51981
G1 X92.419 Y15.205 E1.53689
G1 X93.825 Y15.085 E1.58852
G1 X94.331 Y15.073 E1.60704
G1 X94.604 Y15.07 E1.61703
G1 X125.163 Y15.067 E2.73506
G1 X125.335 Y15.068 E2.74136
G1 X125.942 Y15.077 E2.76357
G1 X127.312 Y15.179 E2.81383
G1 X128.136 Y15.29 E2.84425
G1 X128.553 Y15.354 E2.85968
G1 X128.797 Y15.396 E2.86874
G1 X129.736 Y15.598 E2.90388
G1 X130.655 Y15.878 E2.93903
G1 X131.881 Y16.389 E2.98762
G1 X132.371 Y16.627 E3.00755
G1 X132.684 Y16.785 E3.02038
G1 X133.062 Y16.983 E3.03599
G1 X133.893 Y17.463 E3.0711
G1 X134.682 Y18.012 E3.10627
G1 X135.686 Y18.868 E3.15454
G1 X136.105 Y19.269 E3.17576
G1 X136.373 Y19.534 E3.18955
G1 X136.498 Y19.662 E3.1961
G1 X138.341 Y21.494 E3.29117
G1 X140.163 Y23.207 E3.38266
G1 X142.014 Y24.85 E3.47322
G1 X143.956 Y26.479 E3.56595
G1 X145.924 Y28.037 E3.65779
G1 X147.905 Y29.515 E3.74821
G1 X149.966 Y30.965 E3.84041
G1 X152.039 Y32.337 E3.93136
G1 X154.186 Y33.673 E4.02387
G1 X156.343 Y34.931 E4.11523
G1 X157.498 Y35.572 E4.16356
G1 X158.318 Y36.073 E4.19872
G1 X159.093 Y36.64 E4.23385
G1 X159.819 Y37.269 E4.26899
G1 X160.489 Y37.957 E4.30413
G1 X161.1 Y38.698 E4.33927
G1 X161.648 Y39.488 E4.37444
G1 X162.128 Y40.32 E4.40958
G1 X162.537 Y41.189 E4.44472
G1 X162.872 Y42.089 E4.47986
G1 X163.131 Y43.014 E4.515
G1 X163.312 Y43.958 E4.55017
G1 X163.435 Y45.345 E4.60111
G1 X163.444 Y45.671 E4.61304
G1 X163.448 Y45.987 E4.62461
G1 X163.449 Y51.254 E4.81731
G1 X163.448 Y51.396 E4.8225
G1 X163.439 Y52.137 E4.84961
G1 X163.388 Y53.096 E4.88475
G1 X163.256 Y54.048 E4.91991
G1 X163.046 Y54.985 E4.95504
G1 X162.759 Y55.902 E4.9902
G1 X162.397 Y56.792 E5.02535
G1 X161.962 Y57.648 E5.06048
G1 X161.457 Y58.465 E5.09562
G1 X160.886 Y59.238 E5.13078
G1 X160.252 Y59.96 E5.16593
G1 X159.561 Y60.627 E5.20107
G1 X158.817 Y61.234 E5.2362
G1 X158.024 Y61.778 E5.27138
G1 X157.19 Y62.253 E5.3065
G1 X156.318 Y62.658 E5.34168
G1 X155.416 Y62.988 E5.37682
G1 X154.49 Y63.243 E5.41196
G1 X153.546 Y63.419 E5.44709
G1 X152.224 Y63.532 E5.49563
G1 X151.904 Y63.541 E5.50734
G1 X151.58 Y63.546 E5.5192
G1 X68.799 Y63.547 E8.54784
G1 X68.65 Y63.546 E8.55329
G1 X67.952 Y63.537 E8.57883
G1 X66.993 Y63.485 E8.61396
G1 X66.041 Y63.353 E8.64913
G1 X65.104 Y63.142 E8.68427
G1 X64.188 Y62.854 E8.7194
G1 X63.298 Y62.491 E8.75456
G1 X62.442 Y62.055 E8.78971
G1 X61.625 Y61.55 E8.82485
G1 X60.853 Y60.978 E8.86
G1 X60.132 Y60.344 E8.89513
G1 X59.465 Y59.653 E8.93027
G1 X58.858 Y58.908 E8.96543
G1 X58.316 Y58.115 E9.00057
G1 X57.841 Y57.28 E9.03571
G1 X57.437 Y56.408 E9.07087
G1 X57.107 Y55.506 E9.10601
G1 X56.853 Y54.58 E9.14114
G1 X56.678 Y53.635 E9.17631
G1 X56.565 Y52.31 E9.22496
G1 X56.556 Y51.977 E9.23715
G1 X56.552 Y51.667 E9.24849
G1 X56.551 Y46.358 E9.44273
G1 X56.552 Y46.189 E9.44891
G1 X56.562 Y45.496 E9.47427
G1 X56.616 Y44.537 E9.50941
G1 X56.749 Y43.586 E9.54454
G1 X56.962 Y42.649 E9.57969
G1 X57.251 Y41.733 E9.61484
G1 X57.615 Y40.844 E9.64998
G1 X58.052 Y39.989 E9.68511
G1 X58.559 Y39.173 E9.72026
G0 F6000 X58.995 Y39.316
G1 F1200 X59.566 Y38.566 E9.75475
G1 X60.199 Y37.868 E9.78922
G1 X60.888 Y37.226 E9.82368
G1 X61.629 Y36.645 E9.85813
G1 X62.67 Y35.982 E9.90328
G1 X63.568 Y35.478 E9.94096
G1 X65.827 Y34.171 E10.03644
G1 X67.969 Y32.848 E10.12855
G1 X70.059 Y31.475 E10.22004
G1 X72.114 Y30.04 E10.31174
G1 X74.136 Y28.54 E10.40385
G1 X76.121 Y26.979 E10.49624
G1 X78.058 Y25.367 E10.58844
G1 X79.943 Y23.704 E10.68041
G1 X81.749 Y22.019 E10.77077
G1 X83.904 Y19.873 E10.88204
G1 X83.972 Y19.806 E10.88553
G1 X84.487 Y19.302 E10.9119
G1 X85.188 Y18.672 E10.94638
G1 X85.94 Y18.104 E10.98086
G1 X87.046 Y17.431 E11.02823
G1 X87.596 Y17.139 E11.05101
G1 X87.91 Y16.979 E11.0639
G1 X88.238 Y16.818 E11.07727
G1 X89.101 Y16.439 E11.11175
G1 X89.992 Y16.134 E11.14621
G1 X91.151 Y15.86 E11.18978
G1 X91.659 Y15.768 E11.20867
G1 X92.021 Y15.708 E11.2221
G1 X92.483 Y15.64 E11.23918
G1 X93.836 Y15.525 E11.28886
G1 X94.342 Y15.513 E11.30738
G1 X94.604 Y15.51 E11.31696
G1 X125.163 Y15.507 E12.435
G1 X125.329 Y15.508 E12.44107
G1 X125.936 Y15.517 E12.46328
G1 X127.253 Y15.615 E12.5116
G1 X128.077 Y15.726 E12.54202
G1 X128.478 Y15.788 E12.55687
G1 X128.722 Y15.83 E12.56592
G1 X129.643 Y16.029 E12.6004
G1 X130.543 Y16.305 E12.63484
G1 X131.689 Y16.784 E12.68028
G1 X132.179 Y17.022 E12.70021
G1 X132.479 Y17.174 E12.71252
G1 X132.857 Y17.372 E12.72813
G1 X133.673 Y17.844 E12.76262
G1 X134.445 Y18.384 E12.79708
G1 X135.382 Y19.186 E12.84221
G1 X135.801 Y19.587 E12.86343
G1 X136.059 Y19.842 E12.8767
G1 X136.222 Y20.008 E12.88521
G1 X138.022 Y21.799 E12.97811
G1 X139.862 Y23.528 E13.07049
G1 X141.731 Y25.187 E13.16192
G1 X143.674 Y26.817 E13.25471
G1 X145.641 Y28.374 E13.34649
G1 X147.681 Y29.896 E13.43961
G1 X149.705 Y31.32 E13.53015
G1 X151.815 Y32.717 E13.62273
G1 X153.928 Y34.031 E13.71377
G1 X156.161 Y35.334 E13.80836
G1 X157.284 Y35.957 E13.85534
G1 X158.088 Y36.449 E13.88983
G1 X158.847 Y37.007 E13.92429
G1 X159.556 Y37.627 E13.95875
G1 X160.21 Y38.305 E13.99322
G1 X160.804 Y39.036 E14.02768
G1 X161.334 Y39.815 E14.06215
G1 X161.796 Y40.637 E14.09665
G1 X162.186 Y41.494 E14.1311
G1 X162.503 Y42.381 E14.16556
G1 X162.743 Y43.292 E14.20003
G1 X162.905 Y44.22 E14.23449
G1 X162.995 Y45.357 E14.27622
G1 X163.004 Y45.683 E14.28815
G1 X163.008 Y45.987 E14.29927
G1 X163.009 Y51.254 E14.49197
G1 X163.008 Y51.391 E14.49699
G1 X162.999 Y52.132 E14.5241
G1 X162.948 Y53.073 E14.55858
G1 X162.817 Y54.006 E14.59305
G1 X162.607 Y54.924 E14.6275
G1 X162.32 Y55.821 E14.66196
G1 X161.959 Y56.691 E14.69642
G1 X161.524 Y57.527 E14.7309
G1 X161.021 Y58.324 E14.76538
G1 X160.451 Y59.074 E14.79984
G1 X159.82 Y59.774 E14.83432
G1 X159.132 Y60.417 E14.86878
G1 X158.392 Y61 E14.90324
G1 X157.605 Y61.519 E14.93773
G1 X156.777 Y61.968 E14.97219
G1 X155.914 Y62.346 E15.00666
G1 X155.022 Y62.649 E15.04113
G1 X154.108 Y62.875 E15.07558
G1 X153.177 Y63.023 E15.11007
G1 X152.212 Y63.093 E15.14546
G1 X151.892 Y63.102 E15.15718
G1 X151.58 Y63.106 E15.16859
G1 X68.799 Y63.107 E18.19723
G1 X68.656 Y63.106 E18.20246
G1 X67.958 Y63.097 E18.228
G1 X67.017 Y63.045 E18.26248
G1 X66.084 Y62.913 E18.29696
G1 X65.166 Y62.703 E18.33141
G1 X64.269 Y62.415 E18.36588
G1 X63.399 Y62.053 E18.40035
G1 X62.563 Y61.618 E18.43483
G1 X61.768 Y61.114 E18.46927
G1 X61.017 Y60.544 E18.50376
G1 X60.318 Y59.912 E18.53824
G1 X59.675 Y59.224 E18.57269
G1 X59.093 Y58.483 E18.60717
G1 X58.575 Y57.696 E18.64164
G1 X58.126 Y56.868 E18.6761
G1 X57.749 Y56.004 E18.71059
G1 X57.447 Y55.112 E18.74504
G1 X57.221 Y54.198 E18.77949
G1 X57.074 Y53.267 E18.81397
G1 X57.005 Y52.298 E18.84951
G1 X56.996 Y51.965 E18.8617
G1 X56.992 Y51.667 E18.8726
G1 X56.991 Y46.358 E19.06684
G1 X56.992 Y46.196 E19.07277
G1 X57.002 Y45.503 E19.09812
G1 X57.056 Y44.562 E19.13261
G1 X57.189 Y43.63 E19.16705
G1 X57.401 Y42.712 E19.20152
G1 X57.689 Y41.815 E19.23599
G1 X58.053 Y40.946 E19.27046
G1 X58.489 Y40.111 E19.30492
G1 X58.995 Y39.316 E19.3394
G0 F6000 X59.431 Y39.462
G1 F1200 X60 Y38.735 E19.37318
G1 X60.63 Y38.06 E19.40696
G1 X61.315 Y37.442 E19.44071
G1 X62.052 Y36.885 E19.47451
G1 X62.886 Y36.366 E19.51045
G1 X63.778 Y35.865 E19.54788
G1 X66.027 Y34.564 E19.64294
G1 X68.206 Y33.218 E19.73664
G1 X70.324 Y31.827 E19.82935
G1 X72.376 Y30.394 E19.92092
G1 X74.395 Y28.896 E20.0129
G1 X76.4 Y27.32 E20.1062
G1 X78.338 Y25.706 E20.19847
G1 X80.241 Y24.028 E20.2913
G1 X82.064 Y22.326 E20.38254
G1 X84.215 Y20.185 E20.49358
G1 X84.28 Y20.12 E20.49694
G1 X84.795 Y19.616 E20.52331
G1 X85.482 Y19 E20.55707
G1 X86.22 Y18.445 E20.59085
G1 X87.252 Y17.82 E20.63499
G1 X87.802 Y17.528 E20.65777
G1 X88.104 Y17.374 E20.67018
G1 X88.432 Y17.213 E20.68354
G1 X89.277 Y16.842 E20.71731
G1 X90.152 Y16.546 E20.7511
G1 X91.229 Y16.293 E20.79158
G1 X91.737 Y16.201 E20.81047
G1 X92.085 Y16.144 E20.82337
G1 X92.547 Y16.076 E20.84045
G1 X93.846 Y15.965 E20.88815
G1 X94.352 Y15.953 E20.90667
G1 X94.604 Y15.95 E20.91589
G1 X125.163 Y15.947 E22.03393
G1 X125.322 Y15.948 E22.03974
G1 X125.929 Y15.957 E22.06195
G1 X127.194 Y16.051 E22.10836
G1 X128.018 Y16.162 E22.13878
G1 X128.403 Y16.221 E22.15303
G1 X128.647 Y16.263 E22.16209
G1 X129.55 Y16.459 E22.1959
G1 X130.431 Y16.733 E22.22965
G1 X131.496 Y17.18 E22.27191
G1 X131.986 Y17.418 E22.29184
G1 X132.275 Y17.564 E22.30368
G1 X132.653 Y17.762 E22.3193
G1 X133.452 Y18.225 E22.35308
G1 X134.207 Y18.756 E22.38685
G1 X135.078 Y19.504 E22.42886
G1 X135.497 Y19.905 E22.45008
G1 X135.744 Y20.15 E22.4628
G1 X135.871 Y20.28 E22.46945
G1 X137.721 Y22.12 E22.56492
G1 X139.563 Y23.851 E22.65739
G1 X141.468 Y25.542 E22.75059
G1 X143.372 Y27.139 E22.84151
G1 X145.38 Y28.728 E22.93519
G1 X147.394 Y30.231 E23.02713
G1 X149.47 Y31.692 E23.12001
G1 X151.568 Y33.08 E23.21205
G1 X153.726 Y34.423 E23.30504
G1 X155.939 Y35.714 E23.39877
G1 X157.071 Y36.342 E23.44614
G1 X157.858 Y36.824 E23.4799
G1 X158.6 Y37.373 E23.51367
G1 X159.293 Y37.984 E23.54747
G1 X159.929 Y38.652 E23.58122
G1 X160.506 Y39.374 E23.61503
G1 X161.018 Y40.142 E23.6488
G1 X161.461 Y40.952 E23.68258
G1 X161.833 Y41.797 E23.71636
G1 X162.13 Y42.671 E23.75013
G1 X162.351 Y43.567 E23.78389
G1 X162.493 Y44.48 E23.8177
G1 X162.555 Y45.369 E23.8503
G1 X162.564 Y45.695 E23.86223
G1 X162.568 Y45.987 E23.87292
G1 X162.569 Y51.254 E24.06562
G1 X162.568 Y51.385 E24.07041
G1 X162.559 Y52.126 E24.09752
G1 X162.508 Y53.048 E24.13131
G1 X162.377 Y53.962 E24.16509
G1 X162.168 Y54.861 E24.19886
G1 X161.882 Y55.739 E24.23264
G1 X161.52 Y56.589 E24.26644
G1 X161.087 Y57.404 E24.30021
G1 X160.585 Y58.179 E24.33399
G1 X160.017 Y58.907 E24.36777
G1 X159.389 Y59.583 E24.40153
G1 X158.704 Y60.203 E24.43533
G1 X157.969 Y60.761 E24.46909
G1 X157.188 Y61.253 E24.50286
G1 X156.367 Y61.676 E24.53665
G1 X155.513 Y62.026 E24.57042
G1 X154.631 Y62.301 E24.60422
G1 X153.729 Y62.499 E24.63801
G1 X152.814 Y62.618 E24.67177
G1 X152.2 Y62.653 E24.69427
G1 X151.88 Y62.662 E24.70598
G1 X151.58 Y62.666 E24.71696
G1 X68.799 Y62.667 E27.74559
G1 X68.662 Y62.666 E27.75061
G1 X67.964 Y62.657 E27.77615
G1 X67.042 Y62.605 E27.80993
G1 X66.128 Y62.474 E27.84371
G1 X65.229 Y62.264 E27.87749
G1 X64.351 Y61.977 E27.91128
G1 X63.502 Y61.615 E27.94505
G1 X62.687 Y61.181 E27.97883
G1 X61.913 Y60.678 E28.01261
G1 X61.185 Y60.11 E28.04639
G1 X60.509 Y59.481 E28.08017
G1 X59.89 Y58.796 E28.11395
G1 X59.333 Y58.06 E28.14772
G1 X58.841 Y57.279 E28.18149
G1 X58.419 Y56.458 E28.21526
G1 X58.069 Y55.603 E28.24906
G1 X57.795 Y54.722 E28.28282
G1 X57.598 Y53.82 E28.3166
G1 X57.48 Y52.904 E28.35039
G1 X57.445 Y52.286 E28.37303
G1 X57.436 Y51.953 E28.38522
G1 X57.432 Y51.667 E28.39569
G1 X57.431 Y46.358 E28.58992
G1 X57.432 Y46.202 E28.59563
G1 X57.442 Y45.509 E28.62099
G1 X57.495 Y44.587 E28.65477
G1 X57.628 Y43.674 E28.68853
G1 X57.84 Y42.775 E28.72232
G1 X58.128 Y41.898 E28.75609
G1 X58.491 Y41.049 E28.78988
G1 X58.926 Y40.235 E28.82364
G1 X59.431 Y39.462 E28.85742
G0 F6000 X59.866 Y39.611
G1 F1200 X60.433 Y38.907 E28.8905
G1 X61.06 Y38.255 E28.92359
G1 X61.742 Y37.662 E28.95666
G1 X62.474 Y37.132 E28.98972
G1 X63.101 Y36.75 E29.01658
G1 X63.987 Y36.253 E29.05375
G1 X66.283 Y34.924 E29.15081
G1 X68.41 Y33.611 E29.24226
G1 X70.558 Y32.2 E29.33628
G1 X72.638 Y30.747 E29.42911
G1 X74.677 Y29.235 E29.52198
G1 X76.679 Y27.66 E29.61518
G1 X78.619 Y26.045 E29.70753
G1 X80.521 Y24.368 E29.8003
G1 X82.363 Y22.648 E29.89251
G1 X84.525 Y20.496 E30.00411
G1 X84.588 Y20.435 E30.00732
G1 X85.103 Y19.931 E30.03369
G1 X85.776 Y19.328 E30.06675
G1 X86.5 Y18.786 E30.09983
G1 X87.459 Y18.208 E30.1408
G1 X88.009 Y17.916 E30.16358
G1 X88.298 Y17.769 E30.17544
G1 X88.626 Y17.608 E30.18881
G1 X89.454 Y17.246 E30.22187
G1 X90.311 Y16.958 E30.25495
G1 X91.308 Y16.726 E30.2924
G1 X91.816 Y16.634 E30.31129
G1 X92.149 Y16.579 E30.32364
G1 X92.611 Y16.511 E30.34072
G1 X93.857 Y16.405 E30.38648
G1 X94.363 Y16.393 E30.40499
G1 X94.604 Y16.39 E30.41381
G1 X125.163 Y16.387 E31.53185
G1 X125.316 Y16.388 E31.53745
G1 X125.923 Y16.397 E31.55966
G1 X127.135 Y16.487 E31.60412
G1 X127.959 Y16.598 E31.63454
G1 X128.329 Y16.655 E31.64824
G1 X128.573 Y16.697 E31.65729
G1 X129.456 Y16.89 E31.69036
G1 X130.319 Y17.16 E31.72345
G1 X131.304 Y17.576 E31.76256
G1 X131.794 Y17.814 E31.78249
G1 X132.071 Y17.954 E31.79385
G1 X132.449 Y18.152 E31.80946
G1 X133.231 Y18.606 E31.84254
G1 X133.969 Y19.128 E31.87562
G1 X134.773 Y19.822 E31.91447
G1 X135.192 Y20.223 E31.93569
G1 X135.43 Y20.457 E31.9479
G1 X135.594 Y20.625 E31.95649
G1 X137.421 Y22.442 E32.05077
G1 X139.262 Y24.172 E32.14319
G1 X141.185 Y25.88 E32.23729
G1 X143.091 Y27.477 E32.32827
G1 X145.119 Y29.083 E32.42291
G1 X147.13 Y30.584 E32.51472
G1 X149.226 Y32.058 E32.60847
G1 X151.345 Y33.46 E32.70143
G1 X153.482 Y34.79 E32.79352
G1 X155.702 Y36.085 E32.88755
G1 X156.857 Y36.726 E32.93588
G1 X157.628 Y37.2 E32.96899
G1 X158.353 Y37.739 E33.00204
G1 X159.028 Y38.34 E33.03511
G1 X159.647 Y38.999 E33.06819
G1 X160.206 Y39.71 E33.10128
G1 X160.7 Y40.467 E33.13435
G1 X161.124 Y41.265 E33.16741
G1 X161.477 Y42.097 E33.20048
G1 X161.754 Y42.958 E33.23357
G1 X161.955 Y43.839 E33.26663
G1 X162.077 Y44.735 E33.29971
G1 X162.115 Y45.381 E33.32339
G1 X162.124 Y45.707 E33.33532
G1 X162.128 Y45.987 E33.34556
G1 X162.129 Y51.254 E33.53826
G1 X162.128 Y51.38 E33.54287
G1 X162.119 Y52.121 E33.56998
G1 X162.068 Y53.024 E33.60307
G1 X161.938 Y53.918 E33.63613
G1 X161.729 Y54.798 E33.66922
G1 X161.443 Y55.655 E33.70227
G1 X161.082 Y56.484 E33.73535
G1 X160.65 Y57.278 E33.76842
G1 X160.149 Y58.031 E33.80151
G1 X159.583 Y58.736 E33.83459
G1 X158.958 Y59.389 E33.86766
G1 X158.277 Y59.983 E33.90072
G1 X157.546 Y60.516 E33.93382
G1 X156.772 Y60.981 E33.96686
G1 X155.959 Y61.377 E33.99994
G1 X155.114 Y61.698 E34.03301
G1 X154.244 Y61.945 E34.0661
G1 X153.356 Y62.113 E34.09917
