;FLAVOR:Marlin
;TIME:3554
;Filament used: 3.78763m
;Layer height: 0.2
;MINX:5.986
;MINY:39.915
;MINZ:0.24
;MAXX:53.634
;MAXY:179.769
;MAXZ:7.29
;Generated with Cura_SteamEngine 4.2.1
M140 S60
M105
M190 S60
M104 S210
M105
M109 S210
M82 ;absolute extrusion mode
M201 X500.00 Y500.00 Z100.00 E5000.00 ;Setup machine max acceleration
M203 X500.00 Y500.00 Z10.00 E50.00 ;Setup machine max feedrate
M204 P500.00 R1000.00 T500.00 ;Setup Print/Retract/Travel acceleration
M205 X8.00 Y8.00 Z0.40 E5.00 ;Setup Jerk
M220 S100 ;Reset Feedrate
M221 S100 ;Reset Flowrate

G28 ;Home

G92 E0 ;Reset Extruder
G1 Z2.0 F3000 ;Move Z Axis up
G1 X10.1 Y20 Z0.28 F5000.0 ;Move to start position
G1 X10.1 Y200.0 Z0.28 F1500.0 E15 ;Draw the first line
G1 X10.4 Y200.0 Z0.28 F5000.0 ;Move to side a little
G1 X10.4 Y20 Z0.28 F1500.0 E30 ;Draw the second line
G92 E0 ;Reset Extruder
G1 Z2.0 F3000 ;Move Z Axis up

M141 S28
G92 E0
G92 E0
G1 F2700 E-5
;LAYER_COUNT:31
;LAYER:-6
M107
G0 F12000 X20.158 Y42.241 Z0.24
;TYPE:SUPPORT-INTERFACE
G1 F2700 E0
G1 F1800 X20.567 Y42.059 E0.03573
G1 X21.235 Y41.779 E0.09355
G1 X21.629 Y41.625 E0.12732
G1 X22.286 Y41.386 E0.18313
G1 X22.713 Y41.243 E0.21907
G1 X23.469 Y41.012 E0.28217
G1 X23.878 Y40.899 E0.31605
G1 X24.547 Y40.728 E0.37116
G1 X24.981 Y40.63 E0.40668
G1 X25.696 Y40.487 E0.46489
G1 X26.123 Y40.412 E0.49949
G1 X26.852 Y40.302 E0.55834
G1 X27.26 Y40.251 E0.59116
G1 X28.036 Y40.174 E0.65341
G1 X28.427 Y40.145 E0.68471
G1 X29.161 Y40.109 E0.74337
G1 X29.564 Y40.098 E0.77555
G1 X30.298 Y40.096 E0.83414
G1 X30.796 Y40.109 E0.87391
G1 X31.468 Y40.141 E0.92761
G1 X31.937 Y40.176 E0.96515
G1 X32.695 Y40.251 E1.02596
G1 X33.089 Y40.301 E1.05766
G1 X33.829 Y40.413 E1.1174
G1 X34.221 Y40.481 E1.14916
G1 X35.391 Y40.728 E1.24461
G1 X36.107 Y40.909 E1.30357
G1 X36.556 Y41.037 E1.34083
G1 X37.25 Y41.25 E1.39878
G1 X37.607 Y41.369 E1.42882
G1 X38.328 Y41.631 E1.49006
G1 X38.721 Y41.785 E1.52375
G1 X39.383 Y42.062 E1.58103
G1 X39.777 Y42.239 E1.61551
G1 X40.426 Y42.55 E1.67296
G1 X40.846 Y42.764 E1.71059
G1 X41.488 Y43.111 E1.76884
G1 X41.851 Y43.321 E1.80232
G1 X42.463 Y43.693 E1.85949
G1 X42.853 Y43.944 E1.89651
G1 X43.469 Y44.362 E1.95593
G1 X43.801 Y44.599 E1.98849
G1 X44.396 Y45.048 E2.04799
G1 X44.705 Y45.292 E2.07942
G1 X45.307 Y45.793 E2.14194
G1 X45.631 Y46.079 E2.17644
G1 X46.153 Y46.559 E2.23305
G1 X46.473 Y46.87 E2.26867
G1 X47.033 Y47.443 E2.33262
G1 X47.308 Y47.74 E2.36493
G1 X47.773 Y48.263 E2.42079
G1 X48.057 Y48.6 E2.45597
G1 X48.507 Y49.16 E2.51332
G1 X48.767 Y49.501 E2.54755
G1 X49.202 Y50.1 E2.60664
G1 X49.441 Y50.447 E2.64028
G1 X49.861 Y51.093 E2.70178
G1 X50.097 Y51.478 E2.73783
G1 X50.433 Y52.055 E2.79113
G1 X50.654 Y52.457 E2.82775
G1 X50.987 Y53.1 E2.88555
G1 X51.176 Y53.488 E2.92
G1 X51.469 Y54.129 E2.97626
G1 X51.643 Y54.535 E3.01152
G1 X51.904 Y55.185 E3.06743
G1 X52.077 Y55.654 E3.10733
G1 X52.31 Y56.331 E3.16449
G1 X52.451 Y56.786 E3.20251
G1 X52.647 Y57.472 E3.25946
G1 X52.764 Y57.925 E3.29681
G1 X52.914 Y58.569 E3.34959
G1 X52.997 Y58.961 E3.38158
G1 X53.133 Y59.698 E3.4414
G1 X53.2 Y60.123 E3.47574
G1 X53.301 Y60.895 E3.53789
G1 X53.35 Y61.364 E3.57554
G1 X53.402 Y62.005 E3.62687
G1 X53.429 Y62.494 E3.66596
G1 X53.454 Y63.267 E3.7277
G1 X53.455 Y63.667 E3.75963
G1 X53.445 Y64.3 E3.81017
G1 X53.425 Y64.784 E3.84883
G1 X53.373 Y65.555 E3.91052
G1 X53.338 Y65.943 E3.94162
G1 X53.247 Y66.721 E4.00414
G1 X53.189 Y67.128 E4.03696
G1 X53.051 Y67.925 E4.10153
G1 X52.977 Y68.302 E4.13219
G1 X52.833 Y68.959 E4.18588
G1 X52.731 Y69.376 E4.22015
G1 X52.51 Y70.181 E4.28679
G1 X52.406 Y70.528 E4.3157
G1 X52.165 Y71.262 E4.37737
G1 X52.03 Y71.641 E4.40949
G1 X51.789 Y72.275 E4.46363
G1 X51.626 Y72.674 E4.49803
G1 X51.312 Y73.389 E4.56037
G1 X51.107 Y73.82 E4.59847
G1 X50.79 Y74.453 E4.65498
G1 X50.527 Y75.07 E4.70852
G1 X50.341 Y75.726 E4.76295
G1 X50.24 Y76.398 E4.81719
G1 X50.221 Y76.857 E4.85386
G1 X50.22 Y101.61 E6.82975
G1 X50.203 Y102.47 E6.89842
G1 X50.142 Y103.432 E6.97536
G1 X50.109 Y103.774 E7.00279
G1 X49.99 Y104.708 E7.07795
G1 X49.945 Y104.994 E7.10106
G1 X49.762 Y105.953 E7.17899
G1 X49.674 Y106.334 E7.2102
G1 X49.463 Y107.158 E7.2781
G1 X49.367 Y107.487 E7.30546
G1 X49.034 Y108.505 E7.39096
G1 X48.848 Y109.148 E7.44439
G1 X48.742 Y109.823 E7.49893
G1 X48.722 Y110.506 E7.55347
G1 X48.79 Y111.188 E7.60818
G1 X48.976 Y111.962 E7.67173
G1 X49.054 Y112.206 E7.69217
G1 X49.145 Y112.516 E7.71796
G1 X49.386 Y113.459 E7.79566
G1 X49.447 Y113.73 E7.81783
G1 X49.628 Y114.678 E7.89487
G1 X49.685 Y115.049 E7.92483
G1 X49.794 Y115.911 E7.99419
G1 X49.826 Y116.241 E8.02066
G1 X49.887 Y117.197 E8.09712
G1 X49.899 Y117.596 E8.12899
G1 X49.905 Y118.071 E8.16691
G1 X49.905 Y142.834 E10.1436
G1 X49.947 Y143.502 E10.19703
G1 X50.076 Y144.173 E10.25157
G1 X50.288 Y144.818 E10.30576
G1 X50.479 Y145.243 E10.34296
G1 X50.801 Y145.884 E10.40022
G1 X51.004 Y146.318 E10.43847
G1 X51.311 Y147.019 E10.49955
G1 X51.447 Y147.347 E10.5279
G1 X51.715 Y148.046 E10.58765
G1 X51.855 Y148.44 E10.62103
G1 X52.082 Y149.131 E10.67909
G1 X52.206 Y149.545 E10.71359
G1 X52.415 Y150.31 E10.77689
G1 X52.504 Y150.669 E10.80642
G1 X52.67 Y151.429 E10.86851
G1 X52.743 Y151.802 E10.89885
G1 X52.868 Y152.531 E10.95789
G1 X52.93 Y152.958 E10.99234
G1 X53.017 Y153.696 E11.05165
G1 X53.06 Y154.163 E11.08909
G1 X53.106 Y154.829 E11.14238
G1 X53.126 Y155.261 E11.1769
G1 X53.141 Y155.965 E11.23311
G1 X53.14 Y156.395 E11.26743
G1 X53.116 Y157.222 E11.33348
G1 X53.093 Y157.631 E11.36618
G1 X53.035 Y158.336 E11.42264
G1 X52.99 Y158.765 E11.45708
G1 X52.887 Y159.549 E11.5202
G1 X52.825 Y159.945 E11.55219
G1 X52.694 Y160.667 E11.61077
G1 X52.606 Y161.089 E11.64518
G1 X52.449 Y161.764 E11.7005
G1 X52.324 Y162.243 E11.74001
G1 X52.132 Y162.917 E11.79595
G1 X52.005 Y163.322 E11.82983
G1 X51.741 Y164.092 E11.89481
G1 X51.615 Y164.436 E11.92406
G1 X51.353 Y165.095 E11.98066
G1 X51.13 Y165.611 E12.02554
G1 X50.866 Y166.189 E12.07626
G1 X50.688 Y166.557 E12.10889
G1 X50.333 Y167.242 E12.17048
G1 X50.127 Y167.616 E12.20456
G1 X49.753 Y168.255 E12.26366
G1 X49.532 Y168.613 E12.29725
G1 X49.141 Y169.216 E12.35461
G1 X48.902 Y169.564 E12.38831
G1 X48.497 Y170.123 E12.44342
G1 X48.43 Y170.214 E12.45244
G1 X48.149 Y170.578 E12.48914
G1 X47.75 Y171.076 E12.54008
G1 X47.436 Y171.447 E12.57888
G1 X46.968 Y171.974 E12.63514
G1 X46.701 Y172.262 E12.66649
G1 X46.127 Y172.845 E12.7318
G1 X45.837 Y173.126 E12.76403
G1 X45.309 Y173.612 E12.82131
G1 X44.99 Y173.892 E12.8552
G1 X44.985 Y173.898 E12.85582
G1 X44.43 Y174.36 E12.91346
G1 X44.076 Y174.64 E12.94949
G1 X43.492 Y175.081 E13.00791
G1 X43.173 Y175.31 E13.03925
G1 X42.563 Y175.725 E13.09815
G1 X42.144 Y175.994 E13.13789
G1 X41.576 Y176.341 E13.19102
G1 X41.177 Y176.57 E13.22775
G1 X40.452 Y176.961 E13.2935
G1 X40.133 Y177.124 E13.32209
G1 X39.476 Y177.438 E13.38022
G1 X39.051 Y177.628 E13.41738
G1 X38.416 Y177.895 E13.47237
G1 X38.033 Y178.046 E13.50523
G1 X37.304 Y178.309 E13.56709
G1 X36.809 Y178.473 E13.60872
G1 X36.182 Y178.665 E13.66106
G1 X35.792 Y178.774 E13.69339
G1 X35.018 Y178.969 E13.7571
G1 X34.659 Y179.051 E13.7865
G1 X33.94 Y179.196 E13.84505
G1 X33.499 Y179.273 E13.88078
G1 X32.77 Y179.383 E13.93963
G1 X32.321 Y179.438 E13.97574
G1 X31.577 Y179.512 E14.03542
G1 X31.174 Y179.541 E14.06768
G1 X30.471 Y179.577 E14.12387
G1 X30.057 Y179.587 E14.15692
G1 X29.322 Y179.589 E14.21559
G1 X28.825 Y179.576 E14.25528
G1 X28.154 Y179.544 E14.3089
G1 X27.685 Y179.509 E14.34645
G1 X26.927 Y179.434 E14.40725
G1 X26.533 Y179.384 E14.43895
G1 X25.793 Y179.272 E14.49869
G1 X25.383 Y179.2 E14.53192
G1 X24.676 Y179.059 E14.58947
G1 X24.344 Y178.985 E14.61662
G1 X23.513 Y178.776 E14.68502
G1 X23.065 Y178.648 E14.72221
G1 X22.371 Y178.435 E14.78016
G1 X22.014 Y178.316 E14.8102
G1 X21.288 Y178.052 E14.87187
G1 X20.905 Y177.902 E14.9047
G1 X20.174 Y177.595 E14.96799
G1 X19.8 Y177.425 E15.00078
G1 X19.202 Y177.138 E15.05373
G1 X18.764 Y176.914 E15.093
G1 X18.119 Y176.564 E15.15158
G1 X17.737 Y176.344 E15.18677
G1 X17.13 Y175.974 E15.24351
G1 X16.779 Y175.748 E15.27684
G1 X16.135 Y175.312 E15.33892
G1 X15.813 Y175.081 E15.37055
G1 X15.223 Y174.635 E15.42959
G1 X14.924 Y174.399 E15.45999
G1 X14.312 Y173.89 E15.52354
G1 X13.985 Y173.602 E15.55832
G1 X13.454 Y173.112 E15.61599
G1 X13.144 Y172.81 E15.65054
G1 X12.585 Y172.24 E15.71427
G1 X12.311 Y171.943 E15.74653
G1 X11.845 Y171.419 E15.8025
G1 X11.564 Y171.085 E15.83734
G1 X11.111 Y170.521 E15.89509
G1 X10.848 Y170.177 E15.92965
G1 X10.395 Y169.551 E15.99133
G1 X10.165 Y169.214 E16.0239
G1 X9.756 Y168.585 E16.08379
G1 X9.522 Y168.203 E16.11955
G1 X9.188 Y167.63 E16.1725
G1 X8.965 Y167.223 E16.20954
G1 X8.629 Y166.576 E16.26774
G1 X8.413 Y166.127 E16.30751
G1 X8.129 Y165.503 E16.36224
G1 X7.912 Y164.987 E16.40692
G1 X7.695 Y164.438 E16.45404
G1 X7.546 Y164.035 E16.48834
G1 X7.319 Y163.375 E16.54405
G1 X7.18 Y162.931 E16.58119
G1 X6.963 Y162.174 E16.64405
G1 X6.856 Y161.754 E16.67865
G1 X6.708 Y161.118 E16.73077
G1 X6.615 Y160.672 E16.76714
G1 X6.473 Y159.893 E16.83035
G1 X6.409 Y159.469 E16.86458
G1 X6.321 Y158.795 E16.91884
G1 X6.273 Y158.35 E16.95456
G1 X6.192 Y157.193 E17.04715
G1 X6.168 Y156.4 E17.11048
G1 X6.167 Y155.984 E17.14368
G1 X6.179 Y155.331 E17.19582
G1 X6.197 Y154.892 E17.23089
G1 X6.268 Y153.909 E17.30956
G1 X6.288 Y153.705 E17.32592
G1 X6.368 Y153.016 E17.38129
G1 X6.44 Y152.517 E17.42154
G1 X6.57 Y151.757 E17.48309
G1 X6.657 Y151.325 E17.51826
G1 X6.789 Y150.726 E17.56722
G1 X6.894 Y150.297 E17.60248
G1 X7.1 Y149.543 E17.66487
G1 X7.222 Y149.135 E17.69887
G1 X7.465 Y148.394 E17.76111
G1 X7.591 Y148.044 E17.79081
G1 X7.832 Y147.41 E17.84495
G1 X7.995 Y147.011 E17.87936
G1 X8.356 Y146.197 E17.95044
G1 X8.536 Y145.818 E17.98393
G1 X8.83 Y145.235 E18.03605
G1 X9.093 Y144.619 E18.08951
G1 X9.28 Y143.962 E18.14404
G1 X9.381 Y143.291 E18.19821
G1 X9.401 Y142.828 E18.2352
G1 X9.402 Y118.075 E20.21109
G1 X9.423 Y117.151 E20.28487
G1 X9.476 Y116.294 E20.35341
G1 X9.513 Y115.911 E20.38412
G1 X9.641 Y114.913 E20.46444
G1 X9.698 Y114.57 E20.4922
G1 X9.862 Y113.719 E20.56138
G1 X9.925 Y113.438 E20.58436
G1 X10.178 Y112.458 E20.66516
G1 X10.26 Y112.179 E20.68837
G1 X10.582 Y111.199 E20.77071
G1 X10.77 Y110.558 E20.82403
G1 X10.878 Y109.884 E20.87852
G1 X10.901 Y109.202 E20.93299
G1 X10.836 Y108.519 E20.98776
G1 X10.642 Y107.712 E21.05401
G1 X10.56 Y107.457 E21.07539
G1 X10.457 Y107.097 E21.10528
G1 X10.227 Y106.19 E21.17998
G1 X10.155 Y105.857 E21.20717
G1 X9.988 Y104.972 E21.27906
G1 X9.937 Y104.641 E21.3058
G1 X9.818 Y103.676 E21.38341
G1 X9.789 Y103.356 E21.40906
G1 X9.723 Y102.089 E21.51033
G1 X9.717 Y101.614 E21.54825
G1 X9.717 Y76.851 E23.52494
G1 X9.675 Y76.183 E23.57837
G1 X9.546 Y75.512 E23.63291
G1 X9.335 Y74.867 E23.68709
G1 X9.143 Y74.441 E23.72439
G1 X8.818 Y73.795 E23.78211
G1 X8.621 Y73.375 E23.81914
G1 X8.318 Y72.687 E23.87915
G1 X8.144 Y72.261 E23.91588
G1 X7.905 Y71.637 E23.96922
G1 X7.751 Y71.2 E24.00621
G1 X7.53 Y70.521 E24.06321
G1 X7.402 Y70.091 E24.09902
G1 X7.206 Y69.37 E24.15866
G1 X7.101 Y68.939 E24.19407
G1 X6.961 Y68.307 E24.24574
G1 X6.871 Y67.842 E24.28355
G1 X6.743 Y67.079 E24.34531
G1 X6.683 Y66.658 E24.37925
G1 X6.56 Y65.5 E24.47221
G1 X6.515 Y64.834 E24.5255
G1 X6.495 Y64.385 E24.56137
G1 X6.481 Y63.72 E24.61447
G1 X6.482 Y63.289 E24.64887
G1 X6.504 Y62.508 E24.71124
G1 X6.531 Y62.039 E24.74874
G1 X6.586 Y61.349 E24.80399
G1 X6.631 Y60.92 E24.83842
G1 X6.734 Y60.136 E24.90154
G1 X6.804 Y59.688 E24.93774
G1 X6.926 Y59.019 E24.99202
G1 X7.015 Y58.596 E25.02653
G1 X7.172 Y57.921 E25.08185
G1 X7.276 Y57.512 E25.11553
G1 X7.502 Y56.727 E25.18074
G1 X7.631 Y56.318 E25.21498
G1 X7.858 Y55.653 E25.27107
G1 X8.008 Y55.248 E25.30554
G1 X8.258 Y54.617 E25.35972
G1 X8.446 Y54.176 E25.39799
G1 X8.771 Y53.461 E25.46068
G1 X8.941 Y53.114 E25.49153
G1 X9.288 Y52.443 E25.55183
G1 X9.497 Y52.065 E25.5863
G1 X9.868 Y51.43 E25.64501
G1 X10.098 Y51.057 E25.67999
G1 X10.48 Y50.469 E25.73596
G1 X10.724 Y50.114 E25.77035
G1 X11.191 Y49.471 E25.83378
G1 X11.472 Y49.107 E25.87049
G1 X11.871 Y48.609 E25.92143
G1 X12.185 Y48.238 E25.96023
G1 X12.653 Y47.71 E26.01655
G1 X12.92 Y47.423 E26.04784
G1 X13.504 Y46.83 E26.11427
G1 X13.793 Y46.551 E26.14634
G1 X14.312 Y46.073 E26.20266
G1 X14.637 Y45.788 E26.23717
G1 X15.191 Y45.325 E26.2948
G1 X15.565 Y45.029 E26.33287
G1 X16.131 Y44.602 E26.38947
G1 X16.448 Y44.375 E26.42059
G1 X17.102 Y43.931 E26.48369
G1 X17.451 Y43.707 E26.5168
G1 X18.031 Y43.352 E26.57108
G1 X18.428 Y43.123 E26.60766
G1 X19.253 Y42.681 E26.68237
G1 X19.52 Y42.546 E26.70626
G1 X20.158 Y42.241 E26.7627
G0 F12000 X20.8 Y41.961
G1 F1800 X20.8 Y177.857 E37.61051
G0 F12000 X22.4 Y178.443
G1 F1800 X22.4 Y41.347 E48.55411
G0 F12000 X24 Y40.867
G1 F1800 X24 Y178.898 E59.57234
G0 F12000 X25.6 Y179.238
G1 F1800 X25.6 Y40.506 E70.64652
G0 F12000 X27.2 Y40.258
G1 F1800 X27.2 Y179.461 E81.75831
G0 F12000 X28.8 Y179.574
G1 F1800 X28.8 Y40.126 E92.88965
G0 F12000 X30.4 Y40.099
G1 F1800 X30.4 Y179.579 E104.02355
G0 F12000 X32 Y179.47
G1 F1800 X32 Y40.183 E115.14204
G0 F12000 X33.6 Y40.379
G1 F1800 X33.6 Y179.256 E126.2278
G0 F12000 X35.2 Y178.924
G1 F1800 X35.2 Y40.688 E137.2624
G0 F12000 X36.8 Y41.112
G1 F1800 X36.8 Y178.476 E148.22739
G0 F12000 X38.4 Y177.902
G1 F1800 X38.4 Y41.66 E159.10281
G0 F12000 X40 Y42.346
G1 F1800 X40 Y177.188 E169.86648
G0 F12000 X41.6 Y176.327
G1 F1800 X41.6 Y43.176 E180.49517
G0 F12000 X43.2 Y44.18
G1 F1800 X43.2 Y175.291 E190.96102
G0 F12000 X44.8 Y174.052
G1 F1800 X44.8 Y45.372 E201.23281
G0 F12000 X46.4 Y46.8
G1 F1800 X46.4 Y172.568 E211.27216
G0 F12000 X48 Y170.764
G1 F1800 X48 Y48.533 E221.02917
G0 F12000 X49.6 Y50.692
G1 F1800 X49.6 Y106.623 E225.49382
G0 F12000 X49.202 Y109.867
G0 X49.193 Y110.215
G0 X49.6 Y114.532
G1 F1800 X49.6 Y168.503 E229.80202
G0 F12000 X51.2 Y165.45
G1 F1800 X51.2 Y146.766 E231.29346
G0 F12000 X52.8 Y152.135
G1 F1800 X52.8 Y160.083 E231.9279
G1 F2700 E226.9279
G0 F12000 X19.2 Y177.136
G1 F2700 E231.9279
G1 F1800 X19.2 Y42.709 E242.65844
G0 F12000 X17.6 Y43.615
G1 F1800 X17.6 Y176.26 E253.24674
G0 F12000 X16 Y175.215
G1 F1800 X16 Y44.7 E263.66501
G0 F12000 X14.4 Y45.995
G1 F1800 X14.4 Y173.963 E273.87997
G0 F12000 X12.8 Y172.459
G1 F1800 X12.8 Y47.551 E283.85067
G0 F12000 X11.2 Y49.459
G1 F1800 X11.2 Y170.631 E293.52314
G0 F12000 X9.6 Y168.33
G1 F1800 X9.6 Y115.232 E297.76165
G1 F2700 E292.76165
G0 F12000 X8.921 Y143.245
G0 X8.87 Y143.597
G0 X8 Y146.999
G1 F2700 E297.76165
G1 F1800 X8 Y165.196 E299.21422
G0 F12000 X6.4 Y159.4
G1 F1800 X6.4 Y152.794 E299.74154
G1 F2700 E294.74154
G0 F12000 X8.828 Y143.867
G0 X8.94 Y142.815
G0 X10.439 Y109.222
G0 X9.6 Y75.792
G1 F2700 E299.74154
G1 F1800 X9.6 Y51.888 E301.64966
G0 F12000 X8 Y55.269
G1 F1800 X8 Y71.885 E302.97602
G1 F2700 E297.97602
G0 F12000 X51.2 Y73.625
G1 F2700 E302.97602
G1 F1800 X51.2 Y53.541 E304.57921
G0 F12000 X52.8 Y58.08
G1 F1800 X52.8 Y69.094 E305.4584
G0 F600 X52.8 Y69.094 Z0.54
G0 F12000 X53.262 Y60.898
;TIME_ELAPSED:141.364685
;LAYER:-5
M140 S60
;TYPE:SUPPORT
G1 F1800 X53.161 Y60.139 E305.54244
G1 X53.093 Y59.703 E305.59087
G1 X52.98 Y59.09 E305.65928
G1 X34.458 Y40.568 E308.5343
G1 X34.885 Y40.652 E308.58207
G1 X35.38 Y40.766 E308.63782
G1 X36.097 Y40.947 E308.71899
G1 X36.471 Y41.053 E308.76165
G1 X52.492 Y57.074 E311.24846
G1 X52.439 Y56.886 E311.2699
G1 X52.27 Y56.342 E311.33243
G1 X52.038 Y55.661 E311.41139
G1 X51.866 Y55.198 E311.4656
G1 X51.681 Y54.736 E311.52022
G1 X38.81 Y41.864 E313.51816
G1 X39.377 Y42.102 E313.58566
G1 X39.759 Y42.274 E313.63164
G1 X40.406 Y42.584 E313.71038
