; generated by PrusaSlicer 2.2.0+win64 on 2020-03-30 at 22:48:12 UTC

; 

; external perimeters extrusion width = 0.45mm
; perimeters extrusion width = 0.45mm
; infill extrusion width = 0.45mm
; solid infill extrusion width = 0.45mm
; top infill extrusion width = 0.40mm
; first layer extrusion width = 0.42mm

M107
M190 S60 ; set bed temperature and wait for it to be reached
M104 S220 ; set temperature
G28 ; home all axes
G1 Z5 F5000 ; lift nozzle
M109 S220 ; set temperature and wait for it to be reached
G21 ; set units to millimeters
G90 ; use absolute coordinates
M82 ; use absolute distances for extrusion
G92 E0
; Filament gcode
G1 Z0.350 F7800.000
G1 E-2.00000 F2400.00000
G92 E0
G1 X96.368 Y67.963 F7800.000
G1 E2.00000 F2400.00000
G1 F1800.000
G1 X97.284 Y66.924 E2.06954
G1 X98.354 Y65.976 E2.14127
G1 X99.465 Y65.211 E2.20895
G1 X100.732 Y64.549 E2.28069
G1 X102.029 Y64.064 E2.35023
G1 X103.383 Y63.737 E2.42010
G1 X104.747 Y63.579 E2.48902
G1 X194.962 Y63.607 E7.01654
G1 X196.920 Y63.822 E7.11540
G1 X198.047 Y64.105 E7.17372
G1 X199.202 Y64.531 E7.23547
G1 X200.814 Y65.387 E7.32712
G1 X201.720 Y66.023 E7.38264
G1 X202.656 Y66.840 E7.44501
G1 X203.851 Y68.213 E7.53635
G1 X204.471 Y69.129 E7.59185
G1 X205.072 Y70.266 E7.65641
G1 X205.542 Y71.470 E7.72129
G1 X205.831 Y72.538 E7.77680
G1 X206.088 Y74.321 E7.86720
G1 X206.035 Y225.420 E15.45023
G1 X205.873 Y226.996 E15.52974
G1 X205.557 Y228.319 E15.59803
G1 X205.056 Y229.665 E15.67007
G1 X204.494 Y230.759 E15.73182
G1 X203.629 Y232.042 E15.80946
G1 X202.707 Y233.085 E15.87932
G1 X201.636 Y234.031 E15.95105
G1 X200.509 Y234.805 E16.01966
G1 X199.246 Y235.461 E16.09109
G1 X197.935 Y235.947 E16.16126
G1 X196.574 Y236.270 E16.23143
G1 X195.141 Y236.426 E16.30379
G1 X104.938 Y236.393 E20.83069
G1 X103.429 Y236.244 E20.90683
G1 X102.102 Y235.939 E20.97514
G1 X100.770 Y235.457 E21.04624
G1 X99.631 Y234.885 E21.11017
G1 X98.378 Y234.054 E21.18565
G1 X97.322 Y233.138 E21.25581
G1 X96.373 Y232.086 E21.32692
G1 X95.565 Y230.930 E21.39772
G1 X94.915 Y229.705 E21.46727
G1 X94.405 Y228.364 E21.53931
G1 X94.073 Y227.005 E21.60949
G1 X93.904 Y225.474 E21.68682
G1 X93.965 Y74.580 E29.25956
G1 X94.127 Y73.004 E29.33906
G1 X94.443 Y71.681 E29.40735
G1 X94.944 Y70.335 E29.47940
G1 X95.506 Y69.241 E29.54114
G1 X96.334 Y68.013 E29.61546
G1 E27.61546 F2400.00000
G92 E0
G1 X152.554 Y160.978 F7800.000
G1 E2.00000 F2400.00000
G1 F1800.000
G1 X152.258 Y161.400 E2.02584
G1 X151.894 Y161.764 E2.05168
G1 X151.472 Y162.059 E2.07752
G1 X151.005 Y162.276 E2.10337
G1 X150.508 Y162.409 E2.12921
G1 X149.995 Y162.454 E2.15505
G1 X149.482 Y162.409 E2.18089
G1 X148.985 Y162.275 E2.20673
G1 X148.518 Y162.058 E2.23257
G1 X148.096 Y161.762 E2.25841
G1 X147.732 Y161.398 E2.28425
G1 X147.437 Y160.976 E2.31009
G1 X147.220 Y160.509 E2.33594
G1 X147.087 Y160.012 E2.36178
G1 X147.042 Y159.499 E2.38762
G1 X147.087 Y158.986 E2.41346
G1 X147.221 Y158.489 E2.43930
G1 X147.438 Y158.022 E2.46514
G1 X147.734 Y157.600 E2.49098
G1 X148.098 Y157.236 E2.51683
G1 X148.520 Y156.941 E2.54267
G1 X148.987 Y156.724 E2.56851
G1 X149.484 Y156.591 E2.59435
G1 X149.964 Y156.549 E2.61852
G1 X150.505 Y156.590 E2.64573
G1 X151.008 Y156.725 E2.67185
G1 X151.474 Y156.942 E2.69770
G1 X151.896 Y157.238 E2.72354
G1 X152.260 Y157.602 E2.74938
G1 X152.555 Y158.024 E2.77522
G1 X152.772 Y158.491 E2.80106
G1 X152.905 Y158.988 E2.82690
G1 X152.950 Y159.501 E2.85275
G1 X152.905 Y160.014 E2.87859
G1 X152.771 Y160.511 E2.90443
G1 X152.579 Y160.924 E2.92726
G1 X152.254 Y160.805 F7800.000
G1 F1800.000
G1 X151.993 Y161.177 E2.95007
G1 X151.671 Y161.498 E2.97288
G1 X151.299 Y161.759 E2.99570
G1 X150.887 Y161.951 E3.01851
G1 X150.448 Y162.068 E3.04132
G1 X149.995 Y162.108 E3.06413
G1 X149.542 Y162.068 E3.08695
G1 X149.103 Y161.950 E3.10976
G1 X148.691 Y161.758 E3.13257
G1 X148.319 Y161.497 E3.15539
G1 X147.998 Y161.175 E3.17820
G1 X147.737 Y160.803 E3.20101
G1 X147.545 Y160.391 E3.22382
G1 X147.428 Y159.952 E3.24664
G1 X147.388 Y159.499 E3.26945
G1 X147.428 Y159.046 E3.29226
G1 X147.546 Y158.607 E3.31507
G1 X147.738 Y158.195 E3.33789
G1 X147.999 Y157.823 E3.36070
G1 X148.321 Y157.502 E3.38351
G1 X148.693 Y157.241 E3.40633
G1 X149.105 Y157.049 E3.42914
G1 X149.544 Y156.932 E3.45195
G1 X149.966 Y156.895 E3.47320
G1 X150.447 Y156.931 E3.49738
G1 X150.889 Y157.050 E3.52037
G1 X151.301 Y157.242 E3.54318
G1 X151.673 Y157.503 E3.56600
G1 X151.994 Y157.825 E3.58881
G1 X152.255 Y158.197 E3.61162
G1 X152.447 Y158.609 E3.63443
G1 X152.564 Y159.048 E3.65725
G1 X152.604 Y159.501 E3.68006
G1 X152.564 Y159.954 E3.70287
G1 X152.446 Y160.393 E3.72568
G1 X152.279 Y160.750 E3.74549
G1 X151.954 Y160.632 F7800.000
G1 F1800.000
G1 X151.728 Y160.954 E3.76527
G1 X151.449 Y161.233 E3.78505
G1 X151.126 Y161.459 E3.80484
G1 X150.769 Y161.626 E3.82462
G1 X150.388 Y161.727 E3.84441
G1 X149.995 Y161.762 E3.86419
G1 X149.602 Y161.727 E3.88398
G1 X149.222 Y161.625 E3.90376
G1 X148.864 Y161.458 E3.92354
G1 X148.542 Y161.232 E3.94333
G1 X148.263 Y160.953 E3.96311
G1 X148.037 Y160.630 E3.98290
G1 X147.871 Y160.273 E4.00268
G1 X147.769 Y159.892 E4.02246
G1 X147.734 Y159.499 E4.04225
G1 X147.769 Y159.106 E4.06203
G1 X147.871 Y158.726 E4.08182
G1 X148.038 Y158.368 E4.10160
G1 X148.264 Y158.046 E4.12138
G1 X148.543 Y157.767 E4.14117
G1 X148.866 Y157.541 E4.16095
G1 X149.223 Y157.375 E4.18074
G1 X149.604 Y157.273 E4.20052
G1 X149.968 Y157.241 E4.21885
G1 X150.388 Y157.273 E4.24000
G1 X150.770 Y157.375 E4.25985
G1 X151.128 Y157.542 E4.27964
G1 X151.450 Y157.768 E4.29942
G1 X151.729 Y158.047 E4.31921
G1 X151.955 Y158.370 E4.33899
G1 X152.122 Y158.727 E4.35878
G1 X152.223 Y159.108 E4.37856
G1 X152.258 Y159.501 E4.39834
G1 X152.223 Y159.894 E4.41813
G1 X152.121 Y160.274 E4.43791
G1 X151.980 Y160.577 E4.45469
G1 X152.151 Y160.973 F7800.000
G1 E2.45469 F2400.00000
G92 E0
G1 X157.600 Y152.266 F7800.000
G1 E2.00000 F2400.00000
G1 F1800.000
G1 X157.236 Y151.902 E2.02584
G1 X156.941 Y151.480 E2.05168
G1 X156.724 Y151.013 E2.07752
G1 X156.591 Y150.516 E2.10337
G1 X156.546 Y150.003 E2.12921
G1 X156.591 Y149.490 E2.15505
G1 X156.725 Y148.993 E2.18089
G1 X156.942 Y148.526 E2.20673
G1 X157.238 Y148.104 E2.23257
G1 X157.602 Y147.740 E2.25841
G1 X158.024 Y147.445 E2.28425
G1 X158.491 Y147.228 E2.31010
G1 X158.988 Y147.095 E2.33594
G1 X159.468 Y147.053 E2.36011
G1 X160.009 Y147.094 E2.38732
G1 X160.511 Y147.229 E2.41344
G1 X160.978 Y147.446 E2.43928
G1 X161.400 Y147.742 E2.46513
G1 X161.764 Y148.106 E2.49097
G1 X162.059 Y148.528 E2.51681
G1 X162.276 Y148.995 E2.54265
G1 X162.409 Y149.492 E2.56849
G1 X162.454 Y150.005 E2.59433
G1 X162.409 Y150.518 E2.62017
G1 X162.275 Y151.015 E2.64601
G1 X162.058 Y151.482 E2.67186
G1 X161.762 Y151.904 E2.69770
G1 X161.421 Y152.244 E2.72187
G1 X160.981 Y152.560 E2.74908
G1 X160.509 Y152.780 E2.77520
G1 X160.012 Y152.913 E2.80104
G1 X159.499 Y152.958 E2.82688
G1 X158.986 Y152.913 E2.85273
G1 X158.489 Y152.779 E2.87857
G1 X158.022 Y152.562 E2.90441
G1 X157.649 Y152.300 E2.92724
G1 X157.823 Y152.001 F7800.000
G1 F1800.000
G1 X157.502 Y151.679 E2.95005
G1 X157.241 Y151.307 E2.97286
G1 X157.049 Y150.895 E2.99568
G1 X156.932 Y150.456 E3.01849
G1 X156.892 Y150.003 E3.04130
G1 X156.932 Y149.550 E3.06412
G1 X157.050 Y149.111 E3.08693
G1 X157.242 Y148.699 E3.10974
G1 X157.503 Y148.327 E3.13255
G1 X157.825 Y148.006 E3.15537
G1 X158.197 Y147.745 E3.17818
G1 X158.609 Y147.553 E3.20099
G1 X159.048 Y147.436 E3.22380
G1 X159.470 Y147.399 E3.24506
G1 X159.951 Y147.435 E3.26924
G1 X160.393 Y147.554 E3.29222
G1 X160.805 Y147.746 E3.31504
G1 X161.177 Y148.007 E3.33785
G1 X161.498 Y148.329 E3.36066
G1 X161.759 Y148.701 E3.38348
G1 X161.951 Y149.113 E3.40629
G1 X162.068 Y149.552 E3.42910
G1 X162.108 Y150.005 E3.45191
G1 X162.068 Y150.458 E3.47473
G1 X161.950 Y150.897 E3.49754
G1 X161.758 Y151.309 E3.52035
G1 X161.497 Y151.681 E3.54316
G1 X161.197 Y151.980 E3.56442
G1 X160.806 Y152.261 E3.58860
G1 X160.391 Y152.455 E3.61158
G1 X159.952 Y152.572 E3.63440
G1 X159.499 Y152.612 E3.65721
G1 X159.046 Y152.572 E3.68002
G1 X158.607 Y152.454 E3.70283
G1 X158.195 Y152.262 E3.72565
G1 X157.872 Y152.035 E3.74545
G1 X158.046 Y151.736 F7800.000
G1 F1800.000
G1 X157.767 Y151.457 E3.76523
G1 X157.541 Y151.134 E3.78502
G1 X157.374 Y150.777 E3.80480
G1 X157.273 Y150.396 E3.82459
G1 X157.238 Y150.003 E3.84437
G1 X157.273 Y149.610 E3.86415
G1 X157.375 Y149.230 E3.88394
G1 X157.542 Y148.872 E3.90372
G1 X157.768 Y148.550 E3.92351
G1 X158.047 Y148.271 E3.94329
G1 X158.370 Y148.045 E3.96307
G1 X158.727 Y147.878 E3.98286
G1 X159.108 Y147.777 E4.00264
G1 X159.472 Y147.745 E4.02098
G1 X159.892 Y147.777 E4.04213
G1 X160.274 Y147.879 E4.06198
G1 X160.632 Y148.046 E4.08176
G1 X160.954 Y148.272 E4.10154
G1 X161.233 Y148.551 E4.12133
G1 X161.459 Y148.874 E4.14111
G1 X161.626 Y149.231 E4.16090
G1 X161.727 Y149.612 E4.18068
G1 X161.762 Y150.005 E4.20047
G1 X161.727 Y150.398 E4.22025
G1 X161.625 Y150.778 E4.24003
G1 X161.458 Y151.136 E4.25982
G1 X161.232 Y151.458 E4.27960
G1 X160.973 Y151.717 E4.29793
G1 X160.631 Y151.962 E4.31908
G1 X160.273 Y152.129 E4.33893
G1 X159.892 Y152.231 E4.35872
G1 X159.499 Y152.266 E4.37850
G1 X159.106 Y152.231 E4.39829
G1 X158.726 Y152.129 E4.41807
G1 X158.368 Y151.962 E4.43786
G1 X158.095 Y151.770 E4.45463
G1 X157.675 Y151.870 F7800.000
G1 E2.45463 F2400.00000
G92 E0
G1 X151.902 Y142.764 F7800.000
G1 E2.00000 F2400.00000
G1 F1800.000
G1 X151.480 Y143.059 E2.02584
G1 X151.013 Y143.276 E2.05168
G1 X150.516 Y143.409 E2.07753
G1 X150.003 Y143.454 E2.10337
G1 X149.490 Y143.409 E2.12921
G1 X148.992 Y143.275 E2.15505
G1 X148.526 Y143.058 E2.18089
G1 X148.104 Y142.762 E2.20673
G1 X147.740 Y142.398 E2.23257
G1 X147.445 Y141.976 E2.25841
G1 X147.228 Y141.509 E2.28425
G1 X147.095 Y141.012 E2.31010
G1 X147.050 Y140.499 E2.33594
G1 X147.095 Y139.986 E2.36178
G1 X147.229 Y139.489 E2.38762
G1 X147.446 Y139.022 E2.41346
G1 X147.742 Y138.600 E2.43930
G1 X148.106 Y138.236 E2.46514
G1 X148.528 Y137.941 E2.49099
G1 X148.995 Y137.724 E2.51683
G1 X149.492 Y137.591 E2.54267
G1 X149.972 Y137.549 E2.56684
G1 X150.513 Y137.590 E2.59405
G1 X151.015 Y137.725 E2.62017
G1 X151.482 Y137.942 E2.64601
G1 X151.904 Y138.238 E2.67186
G1 X152.268 Y138.602 E2.69770
G1 X152.563 Y139.024 E2.72354
G1 X152.780 Y139.491 E2.74938
G1 X152.905 Y139.956 E2.77355
G1 X152.958 Y140.496 E2.80076
G1 X152.913 Y141.014 E2.82689
G1 X152.779 Y141.511 E2.85273
G1 X152.562 Y141.978 E2.87857
G1 X152.266 Y142.400 E2.90441
G1 X151.944 Y142.721 E2.92724
G1 X151.679 Y142.498 F7800.000
G1 F1800.000
G1 X151.307 Y142.759 E2.95005
G1 X150.895 Y142.951 E2.97287
G1 X150.456 Y143.068 E2.99568
G1 X150.003 Y143.108 E3.01849
G1 X149.550 Y143.068 E3.04130
G1 X149.111 Y142.950 E3.06412
G1 X148.699 Y142.758 E3.08693
G1 X148.327 Y142.497 E3.10974
G1 X148.006 Y142.175 E3.13255
G1 X147.745 Y141.803 E3.15537
G1 X147.553 Y141.391 E3.17818
G1 X147.436 Y140.952 E3.20099
G1 X147.396 Y140.499 E3.22381
G1 X147.436 Y140.046 E3.24662
G1 X147.554 Y139.607 E3.26943
G1 X147.746 Y139.195 E3.29224
G1 X148.007 Y138.823 E3.31506
G1 X148.329 Y138.502 E3.33787
G1 X148.701 Y138.241 E3.36068
G1 X149.113 Y138.049 E3.38349
G1 X149.552 Y137.932 E3.40631
G1 X149.974 Y137.895 E3.42756
G1 X150.455 Y137.931 E3.45174
G1 X150.897 Y138.050 E3.47473
G1 X151.309 Y138.242 E3.49754
G1 X151.681 Y138.503 E3.52035
G1 X152.002 Y138.825 E3.54316
G1 X152.263 Y139.197 E3.56598
G1 X152.455 Y139.609 E3.58879
G1 X152.564 Y140.018 E3.61004
G1 X152.612 Y140.498 E3.63422
G1 X152.572 Y140.954 E3.65721
G1 X152.454 Y141.393 E3.68002
G1 X152.262 Y141.805 E3.70284
G1 X152.001 Y142.177 E3.72565
G1 X151.722 Y142.456 E3.74545
G1 X151.457 Y142.233 F7800.000
G1 F1800.000
G1 X151.134 Y142.459 E3.76523
G1 X150.777 Y142.626 E3.78502
G1 X150.396 Y142.727 E3.80480
G1 X150.003 Y142.762 E3.82459
G1 X149.610 Y142.727 E3.84437
G1 X149.230 Y142.625 E3.86415
G1 X148.872 Y142.458 E3.88394
G1 X148.550 Y142.232 E3.90372
G1 X148.271 Y141.953 E3.92351
G1 X148.045 Y141.630 E3.94329
G1 X147.878 Y141.273 E3.96307
G1 X147.777 Y140.892 E3.98286
G1 X147.742 Y140.499 E4.00264
G1 X147.777 Y140.106 E4.02243
G1 X147.879 Y139.726 E4.04221
G1 X148.046 Y139.368 E4.06199
G1 X148.272 Y139.046 E4.08178
G1 X148.551 Y138.767 E4.10156
G1 X148.874 Y138.541 E4.12135
G1 X149.231 Y138.375 E4.14113
G1 X149.612 Y138.273 E4.16092
G1 X149.976 Y138.241 E4.17925
G1 X150.396 Y138.273 E4.20040
G1 X150.778 Y138.375 E4.22025
G1 X151.136 Y138.542 E4.24003
G1 X151.458 Y138.768 E4.25982
G1 X151.737 Y139.047 E4.27960
G1 X151.963 Y139.370 E4.29939
G1 X152.129 Y139.727 E4.31917
G1 X152.224 Y140.080 E4.33750
G1 X152.266 Y140.500 E4.35865
G1 X152.231 Y140.894 E4.37850
G1 X152.129 Y141.274 E4.39829
G1 X151.962 Y141.632 E4.41807
G1 X151.736 Y141.954 E4.43785
G1 X151.499 Y142.191 E4.45463
G1 X151.525 Y142.621 F7800.000
G1 E2.45463 F2400.00000
G92 E0
G1 X142.764 Y148.098 F7800.000
G1 E2.00000 F2400.00000
G1 F1800.000
G1 X143.059 Y148.520 E2.02584
G1 X143.276 Y148.987 E2.05168
G1 X143.409 Y149.484 E2.07752
G1 X143.454 Y149.997 E2.10337
G1 X143.409 Y150.510 E2.12921
G1 X143.275 Y151.008 E2.15505
G1 X143.058 Y151.474 E2.18089
G1 X142.762 Y151.896 E2.20673
G1 X142.398 Y152.260 E2.23257
G1 X141.976 Y152.555 E2.25841
G1 X141.509 Y152.772 E2.28426
G1 X141.012 Y152.905 E2.31010
G1 X140.499 Y152.950 E2.33594
G1 X139.986 Y152.905 E2.36178
G1 X139.489 Y152.771 E2.38762
G1 X139.022 Y152.554 E2.41346
G1 X138.600 Y152.258 E2.43930
G1 X138.236 Y151.894 E2.46514
G1 X137.941 Y151.472 E2.49098
G1 X137.724 Y151.005 E2.51683
G1 X137.591 Y150.508 E2.54267
G1 X137.546 Y149.995 E2.56851
G1 X137.591 Y149.482 E2.59435
G1 X137.725 Y148.985 E2.62019
G1 X137.942 Y148.518 E2.64603
G1 X138.238 Y148.096 E2.67187
G1 X138.602 Y147.732 E2.69772
G1 X139.024 Y147.437 E2.72356
G1 X139.491 Y147.220 E2.74940
G1 X139.988 Y147.087 E2.77524
G1 X140.468 Y147.045 E2.79941
G1 X141.009 Y147.086 E2.82662
G1 X141.511 Y147.221 E2.85274
G1 X141.978 Y147.438 E2.87859
G1 X142.400 Y147.734 E2.90443
G1 X142.721 Y148.056 E2.92726
G1 X142.498 Y148.321 F7800.000
G1 F1800.000
G1 X142.759 Y148.693 E2.95007
G1 X142.951 Y149.105 E2.97288
G1 X143.068 Y149.544 E2.99570
G1 X143.108 Y149.997 E3.01851
G1 X143.068 Y150.450 E3.04132
G1 X142.950 Y150.889 E3.06413
G1 X142.758 Y151.301 E3.08695
G1 X142.497 Y151.673 E3.10976
G1 X142.175 Y151.994 E3.13257
G1 X141.803 Y152.255 E3.15539
G1 X141.391 Y152.447 E3.17820
G1 X140.952 Y152.564 E3.20101
G1 X140.499 Y152.604 E3.22382
G1 X140.046 Y152.564 E3.24664
G1 X139.607 Y152.446 E3.26945
G1 X139.195 Y152.254 E3.29226
G1 X138.823 Y151.993 E3.31508
G1 X138.502 Y151.671 E3.33789
G1 X138.241 Y151.299 E3.36070
G1 X138.049 Y150.887 E3.38351
G1 X137.932 Y150.448 E3.40633
G1 X137.892 Y149.995 E3.42914
G1 X137.932 Y149.542 E3.45195
G1 X138.050 Y149.103 E3.47476
G1 X138.242 Y148.691 E3.49758
G1 X138.503 Y148.319 E3.52039
G1 X138.825 Y147.998 E3.54320
G1 X139.197 Y147.737 E3.56602
G1 X139.609 Y147.545 E3.58883
G1 X140.048 Y147.428 E3.61164
G1 X140.470 Y147.391 E3.63289
G1 X140.951 Y147.427 E3.65707
G1 X141.393 Y147.546 E3.68006
G1 X141.805 Y147.738 E3.70287
G1 X142.177 Y147.999 E3.72569
G1 X142.456 Y148.278 E3.74549
G1 X142.233 Y148.543 F7800.000
G1 F1800.000
G1 X142.459 Y148.866 E3.76527
G1 X142.625 Y149.223 E3.78506
G1 X142.727 Y149.604 E3.80484
G1 X142.762 Y149.997 E3.82462
G1 X142.727 Y150.390 E3.84441
G1 X142.625 Y150.770 E3.86419
G1 X142.458 Y151.128 E3.88398
G1 X142.232 Y151.450 E3.90376
G1 X141.953 Y151.729 E3.92354
G1 X141.630 Y151.955 E3.94333
G1 X141.273 Y152.122 E3.96311
G1 X140.892 Y152.223 E3.98290
G1 X140.499 Y152.258 E4.00268
G1 X140.106 Y152.223 E4.02246
G1 X139.726 Y152.121 E4.04225
G1 X139.368 Y151.954 E4.06203
G1 X139.046 Y151.728 E4.08182
G1 X138.767 Y151.449 E4.10160
G1 X138.541 Y151.126 E4.12138
G1 X138.375 Y150.769 E4.14117
G1 X138.273 Y150.388 E4.16095
G1 X138.238 Y149.995 E4.18074
G1 X138.273 Y149.602 E4.20052
G1 X138.375 Y149.222 E4.22031
G1 X138.542 Y148.864 E4.24009
G1 X138.768 Y148.542 E4.25987
G1 X139.047 Y148.263 E4.27966
G1 X139.370 Y148.037 E4.29944
G1 X139.727 Y147.871 E4.31923
G1 X140.108 Y147.769 E4.33901
G1 X140.472 Y147.737 E4.35734
G1 X140.892 Y147.769 E4.37849
